media/img/firefox/new/icon-blocker.svg

<?xml version="1.0" encoding="UTF-8"?>
<svg width="65px" height="65px" viewBox="0 0 65 65" version="1.1" xmlns="http://www.w3.org/2000/svg" xmlns:xlink="http://www.w3.org/1999/xlink">
    <!-- Generator: Sketch 52.5 (67469) - http://www.bohemiancoding.com/sketch -->
    <title>icon-blocker</title>
    <desc>Created with Sketch.</desc>
    <defs>
        <linearGradient x1="79.9133916%" y1="9.71235782%" x2="21.8541949%" y2="77.3794122%" id="linearGradient-1">
            <stop stop-color="#00BDEB" offset="0%"></stop>
            <stop stop-color="#0093FE" offset="100%"></stop>
        </linearGradient>
    </defs>
    <g id="Designs" stroke="none" stroke-width="1" fill="none" fill-rule="evenodd">
        <g id="Mac" transform="translate(-776.000000, -563.000000)" fill="url(#linearGradient-1)">
            <path d="M808.5,628 C790.550746,628 776,613.449254 776,595.5 C776,577.550746 790.550746,563 808.5,563 C826.449254,563 841,577.550746 841,595.5 C841,613.449254 826.449254,628 808.5,628 Z M808.5,625.173913 C824.88845,625.173913 838.173913,611.88845 838.173913,595.5 C838.173913,579.11155 824.88845,565.826087 808.5,565.826087 C792.11155,565.826087 778.826087,579.11155 778.826087,595.5 C778.826087,611.88845 792.11155,625.173913 808.5,625.173913 Z M804.119565,584.902174 C803.978261,584.054348 804.402174,583.347826 805.25,583.206522 C806.23913,582.923913 807.369565,582.782609 808.5,582.782609 C819.097826,582.782609 825.032609,594.369565 825.315217,594.934783 C825.456522,595.358696 825.456522,595.782609 825.315217,596.206522 C824.467391,597.902174 823.336957,599.456522 822.065217,601.01087 C821.782609,601.293478 821.358696,601.576087 820.934783,601.576087 C820.652174,601.576087 820.228261,601.434783 820.086957,601.293478 C819.521739,600.728261 819.380435,599.880435 819.945652,599.315217 C820.934783,598.184783 821.782609,597.054348 822.48913,595.782609 C821.217391,593.521739 816.130435,585.891304 808.5,585.891304 C807.652174,585.891304 806.663043,586.032609 805.815217,586.173913 C805.108696,586.032609 804.402174,585.608696 804.119565,584.902174 Z M825.032609,612.032609 C824.75,612.315217 824.467391,612.456522 824.043478,612.456522 C823.619565,612.456522 823.336957,612.315217 823.054348,612.032609 L816.695652,605.673913 C814.293478,607.369565 811.467391,608.217391 808.5,608.217391 C797.902174,608.217391 791.967391,596.630435 791.684783,596.065217 C791.543478,595.641304 791.543478,595.217391 791.684783,594.793478 C793.23913,591.826087 795.5,589.141304 798.043478,587.021739 L791.967391,580.945652 C791.402174,580.380435 791.402174,579.532609 791.967391,578.967391 C792.532609,578.402174 793.380435,578.402174 793.945652,578.967391 L825.032609,610.054348 C825.597826,610.619565 825.597826,611.467391 825.032609,612.032609 Z M805.532609,595.641304 C805.532609,596.347826 805.815217,597.054348 806.380435,597.619565 C807.228261,598.326087 808.217391,598.467391 809.206522,598.184783 L805.673913,594.652174 C805.673913,595.076087 805.532609,595.358696 805.532609,595.641304 Z M814.717391,603.695652 L811.326087,600.445652 C810.478261,601.01087 809.347826,601.293478 808.358696,601.293478 C806.945652,601.293478 805.532609,600.728261 804.543478,599.73913 C803.413043,598.75 802.847826,597.336957 802.706522,595.782609 C802.706522,594.652174 802.98913,593.521739 803.554348,592.532609 L800.021739,589 C797.902174,590.836957 796.065217,592.956522 794.51087,595.5 C795.782609,597.76087 800.869565,605.391304 808.5,605.391304 C810.619565,605.391304 812.73913,604.826087 814.717391,603.695652 Z" id="icon-blocker"></path>
        </g>
    </g>
</svg>

<svg width="65" height="65" xmlns="http://www.w3.org/2000/svg"><defs><linearGradient x1="79.913%" y1="9.712%" x2="21.854%" y2="77.379%" id="a"><stop stop-color="#00BDEB" offset="0%"/><stop stop-color="#0093FE" offset="100%"/></linearGradient></defs><path d="M808.5 628c-17.95 0-32.5-14.55-32.5-32.5s14.55-32.5 32.5-32.5 32.5 14.55 32.5 32.5-14.55 32.5-32.5 32.5zm0-2.826c16.388 0 29.674-13.286 29.674-29.674 0-16.388-13.286-29.674-29.674-29.674-16.388 0-29.674 13.286-29.674 29.674 0 16.388 13.286 29.674 29.674 29.674zm-4.38-40.272c-.142-.848.282-1.554 1.13-1.695.99-.283 2.12-.424 3.25-.424 10.598 0 16.533 11.587 16.815 12.152a1.96 1.96 0 0 1 0 1.272c-.848 1.695-1.978 3.25-3.25 4.804-.282.282-.706.565-1.13.565-.283 0-.707-.141-.848-.283-.565-.565-.707-1.413-.141-1.978.989-1.13 1.837-2.26 2.543-3.532-1.272-2.261-6.359-9.892-13.989-9.892-.848 0-1.837.142-2.685.283-.706-.141-1.413-.565-1.695-1.272zm20.913 27.13c-.283.283-.566.425-.99.425-.423 0-.706-.142-.989-.424l-6.358-6.36c-2.403 1.697-5.229 2.544-8.196 2.544-10.598 0-16.533-11.587-16.815-12.152a1.96 1.96 0 0 1 0-1.272c1.554-2.967 3.815-5.652 6.358-7.771l-6.076-6.076a1.366 1.366 0 0 1 0-1.979 1.366 1.366 0 0 1 1.979 0l31.087 31.087a1.366 1.366 0 0 1 0 1.979zm-19.5-16.39c0 .706.282 1.412.847 1.978.848.706 1.837.847 2.827.565l-3.533-3.533c0 .424-.141.707-.141.99zm9.184 8.054l-3.39-3.25c-.849.565-1.98.847-2.968.847-1.413 0-2.826-.565-3.816-1.554-1.13-.989-1.695-2.402-1.836-3.956 0-1.13.282-2.261.847-3.25L800.022 589a27.42 27.42 0 0 0-5.511 6.5c1.272 2.26 6.359 9.891 13.989 9.891 2.12 0 4.24-.565 6.217-1.695z" transform="translate(-776 -563)" fill="url(#a)" fill-rule="evenodd"/></svg>
